src/images/svg/plus.svg

<svg xmlns="http://www.w3.org/2000/svg" width="50" height="50" viewBox="0 0 24 24" fill="currentColor"><path d="M11 5v6H5v2h6v6h2v-6h6v-2h-6V5z"/></svg>

<svg xmlns="http://www.w3.org/2000/svg" x="0px" y="0px"
     width="50" height="50"
     viewBox="0 0 24 24"
     style="fill:currentColor;"><g id="surface1"><path style=" " d="M 11 5 L 11 11 L 5 11 L 5 13 L 11 13 L 11 19 L 13 19 L 13 13 L 19 13 L 19 11 L 13 11 L 13 5 Z "></path></g></svg>
